src/assets/icons/public-profile/box.svg

<svg width="48" height="48" viewBox="0 0 48 48" fill="none" xmlns="http://www.w3.org/2000/svg">
<path fill-rule="evenodd" clip-rule="evenodd" d="M2.00004 34.5002L2.13651 12.4676C2.14095 11.7508 2.5473 11.0931 3.19704 10.7511L23.1687 0.238293C23.7991 -0.093574 24.5635 -0.0778735 25.1789 0.279583L45.0141 11.8009C45.6294 12.1584 46.0043 12.8043 46 13.4998L45.8635 35.5324C45.8591 36.2492 45.4527 36.9069 44.803 37.2489L24.8313 47.7617C24.2009 48.0936 23.4365 48.0779 22.8211 47.7204L2.98594 36.1991C2.3706 35.8416 1.99573 35.1957 2.00004 34.5002ZM21.1387 41.9538L6.09379 33.2149L6.19501 16.8743L21.1345 25.8216L21.1387 41.9538ZM25.1956 42.8869L41.7862 34.1538L41.8936 16.8198L25.1912 25.6102L25.1956 42.8869ZM39.6958 13.5011L24.09 4.4364L18.8435 7.19806L33.4325 16.4577C33.528 16.5183 33.6164 16.5854 33.6977 16.6579L39.6958 13.5011ZM14.7947 9.32932L29.676 18.7745L23.033 22.2706C23.0139 22.2807 22.995 22.291 22.9763 22.3016L7.62126 13.1053L14.7947 9.32932Z" fill="#253238"/>
</svg>

<svg width="48" height="48" viewBox="0 0 48 48" fill="none" xmlns="http://www.w3.org/2000/svg"><path fill-rule="evenodd" clip-rule="evenodd" d="M2 34.5l.137-22.032a1.959 1.959 0 011.06-1.717L23.169.238a2.084 2.084 0 012.01.042L45.014 11.8c.615.358.99 1.004.986 1.7l-.136 22.032a1.959 1.959 0 01-1.061 1.717L24.831 47.762a2.083 2.083 0 01-2.01-.042L2.986 36.2A1.955 1.955 0 012 34.5zm19.139 7.454l-15.045-8.74.101-16.34 14.94 8.948.004 16.132zm4.057.933l16.59-8.733.108-17.334-16.703 8.79.005 17.277zm14.5-29.386L24.09 4.436l-5.247 2.762 14.59 9.26c.095.06.183.127.265.2l5.998-3.157zM14.795 9.33l14.881 9.445-6.643 3.497-.057.03-15.355-9.196 7.174-3.776z" fill="#253238"/></svg>
